src/com/lilithsthrone/res/InventoryIcons/feminineWarningIcon.svg

<?xml version="1.0" encoding="UTF-8" standalone="no"?>
<!-- Created with Inkscape (http://www.inkscape.org/) -->

<svg
   xmlns:dc="http://purl.org/dc/elements/1.1/"
   xmlns:cc="http://creativecommons.org/ns#"
   xmlns:rdf="http://www.w3.org/1999/02/22-rdf-syntax-ns#"
   xmlns:svg="http://www.w3.org/2000/svg"
   xmlns="http://www.w3.org/2000/svg"
   xmlns:sodipodi="http://sodipodi.sourceforge.net/DTD/sodipodi-0.dtd"
   xmlns:inkscape="http://www.inkscape.org/namespaces/inkscape"
   viewBox="0 0 64.000001 64.000001"
   width:"100%";
    height:"100%";
   id="svg4311"
   version="1.1"
   inkscape:version="0.91 r13725"
   sodipodi:docname="feminineWarningIcon.svg">
  <defs
     id="defs4313">
    <inkscape:path-effect
       effect="powerstroke"
       id="path-effect4183"
       is_visible="true"
       offset_points="0.238227,0.51804536"
       sort_points="true"
       interpolator_type="Linear"
       interpolator_beta="0.2"
       start_linecap_type="zerowidth"
       linejoin_type="round"
       miter_limit="4"
       end_linecap_type="zerowidth"
       cusp_linecap_type="round" />
  </defs>
  <sodipodi:namedview
     id="base"
     pagecolor="#ffffff"
     bordercolor="#666666"
     borderopacity="1.0"
     inkscape:pageopacity="0.0"
     inkscape:pageshadow="2"
     inkscape:zoom="7.919596"
     inkscape:cx="32.134026"
     inkscape:cy="51.479891"
     inkscape:document-units="px"
     inkscape:current-layer="layer5"
     showgrid="false"
     units="px"
     inkscape:window-width="2560"
     inkscape:window-height="1388"
     inkscape:window-x="-8"
     inkscape:window-y="-8"
     inkscape:window-maximized="1" />
  <metadata
     id="metadata4316">
    <rdf:RDF>
      <cc:Work
         rdf:about="">
        <dc:format>image/svg+xml</dc:format>
        <dc:type
           rdf:resource="http://purl.org/dc/dcmitype/StillImage" />
        <dc:title />
      </cc:Work>
    </rdf:RDF>
  </metadata>
  <g
     inkscape:groupmode="layer"
     id="layer5"
     inkscape:label="Stage5"
     style="display:inline">
  <path
       style="fill:#ff2a2a;fill-rule:evenodd;stroke:#000000;stroke-width:0.99999994px;stroke-linecap:butt;stroke-linejoin:miter;stroke-opacity:1"
       d="M 33.296875 0.91992188 C 8.7468081 1.0785089 7.4949614 37.281245 31.273438 40.099609 L 31.210938 47.220703 L 21.355469 47.220703 L 21.355469 53.359375 L 31.085938 53.480469 L 31.09375 62.548828 L 36.990234 62.601562 L 36.990234 53.371094 L 46.595703 53.353516 L 46.628906 47.464844 L 36.898438 47.341797 L 36.941406 40.091797 C 60.006519 37.032312 59.174432 0.7527596 33.296875 0.91992188 z M 33.935547 7.7949219 A 12.648336 12.751891 0 0 1 46.583984 20.546875 A 12.648336 12.751891 0 0 1 33.935547 33.298828 A 12.648336 12.751891 0 0 1 21.287109 20.546875 A 12.648336 12.751891 0 0 1 33.935547 7.7949219 z "
       id="path4141" />
  </g>
</svg>

<svg xmlns="http://www.w3.org/2000/svg" viewBox="0 0 64 64">
    <path fill="#ff2a2a" fill-rule="evenodd" stroke="#000" d="M33.297.92C8.747 1.079 7.495 37.28 31.273 40.1l-.062 7.12h-9.856v6.14l9.73.12.009 9.069 5.896.053v-9.23l9.606-.018.033-5.89-9.73-.122.042-7.25C60.007 37.032 59.174.752 33.297.92zm.639 6.875a12.648 12.752 0 0 1 12.648 12.752 12.648 12.752 0 0 1-12.648 12.752 12.648 12.752 0 0 1-12.649-12.752A12.648 12.752 0 0 1 33.936 7.795z"/>
</svg>
